assets/img/braze_icons/sliders-02.svg

<svg fill="none" height="24" viewBox="0 0 24 24" width="24" xmlns="http://www.w3.org/2000/svg"><g fill="#801ed7"><path d="m5 2c.55228 0 1 .44772 1 1v4c0 .55228-.44772 1-1 1s-1-.44772-1-1v-4c0-.55228.44772-1 1-1z"/><path clip-rule="evenodd" d="m6 15.8293c1.16519-.4118 2-1.5231 2-2.8293 0-1.6569-1.34315-3-3-3s-3 1.3431-3 3c0 1.3062.83481 2.4175 2 2.8293v5.1707c0 .5523.44772 1 1 1 .55229 0 1-.4477 1-1z" fill-rule="evenodd"/><path d="m13 15c0-.5523-.4477-1-1-1s-1 .4477-1 1v6c0 .5523.4477 1 1 1s1-.4477 1-1z"/><path clip-rule="evenodd" d="m12 2c.5523 0 1 .44772 1 1v3.17071c1.1652.41183 2 1.52307 2 2.82929 0 1.6569-1.3431 3-3 3s-3-1.3431-3-3c0-1.30622.83481-2.41746 2-2.82929v-3.17071c0-.55228.4477-1 1-1z" fill-rule="evenodd"/><path clip-rule="evenodd" d="m22 15c0 1.3062-.8348 2.4175-2 2.8293v3.1707c0 .5523-.4477 1-1 1s-1-.4477-1-1v-3.1707c-1.1652-.4118-2-1.5231-2-2.8293 0-1.6569 1.3431-3 3-3s3 1.3431 3 3z" fill-rule="evenodd"/><path d="m19 2c.5523 0 1 .44772 1 1v6c0 .55228-.4477 1-1 1s-1-.44772-1-1v-6c0-.55228.4477-1 1-1z"/></g></svg>

<svg width="24" height="24" viewBox="0 0 24 24" fill="none" xmlns="http://www.w3.org/2000/svg">
<path d="M5 2C5.55228 2 6 2.44772 6 3V7C6 7.55228 5.55228 8 5 8C4.44772 8 4 7.55228 4 7V3C4 2.44772 4.44772 2 5 2Z" fill="#801ED7"/>
<path fill-rule="evenodd" clip-rule="evenodd" d="M6 15.8293C7.16519 15.4175 8 14.3062 8 13C8 11.3431 6.65685 10 5 10C3.34315 10 2 11.3431 2 13C2 14.3062 2.83481 15.4175 4 15.8293L4 21C4 21.5523 4.44772 22 5 22C5.55229 22 6 21.5523 6 21L6 15.8293Z" fill="#801ED7"/>
<path d="M13 15C13 14.4477 12.5523 14 12 14C11.4477 14 11 14.4477 11 15V21C11 21.5523 11.4477 22 12 22C12.5523 22 13 21.5523 13 21V15Z" fill="#801ED7"/>
<path fill-rule="evenodd" clip-rule="evenodd" d="M12 2C12.5523 2 13 2.44772 13 3V6.17071C14.1652 6.58254 15 7.69378 15 9C15 10.6569 13.6569 12 12 12C10.3431 12 9 10.6569 9 9C9 7.69378 9.83481 6.58254 11 6.17071V3C11 2.44772 11.4477 2 12 2Z" fill="#801ED7"/>
<path fill-rule="evenodd" clip-rule="evenodd" d="M22 15C22 16.3062 21.1652 17.4175 20 17.8293V21C20 21.5523 19.5523 22 19 22C18.4477 22 18 21.5523 18 21V17.8293C16.8348 17.4175 16 16.3062 16 15C16 13.3431 17.3431 12 19 12C20.6569 12 22 13.3431 22 15Z" fill="#801ED7"/>
<path d="M19 2C19.5523 2 20 2.44772 20 3V9C20 9.55228 19.5523 10 19 10C18.4477 10 18 9.55228 18 9V3C18 2.44772 18.4477 2 19 2Z" fill="#801ED7"/>
</svg>
